(generated by ImplicitCAD, based of hacklab wiki example)
M63 P0 (laser off)
G0 Z0.002 (laser off)
G21 (units=mm)
F4000 (set feedrate)
M3 S1 (enable laser)

G00 X103.4000 Y15.3315
M62 P0 (laser on)
G01 X103.0332 Y15.4683
G01 X102.6956 Y15.6667
G01 X102.6167 Y15.7255
G01 X102.2749 Y16.0555
G01 X102.0100 Y16.4500
G01 X101.8333 Y16.8967
G01 X101.7659 Y17.2333
G01 X101.7536 Y17.6269
G01 X101.8101 Y18.0167
G01 X101.8333 Y18.1210
G01 X101.9716 Y18.4736
G01 X102.1636 Y18.8000
G01 X102.3727 Y19.0539
G01 X102.6167 Y19.2745
G01 X102.8728 Y19.4473
G01 X103.1503 Y19.5833
G01 X103.4000 Y19.6685
G01 X103.7884 Y19.7400
G01 X104.1833 Y19.7425
G01 X104.5227 Y19.6885
G01 X104.8498 Y19.5833
G01 X104.9667 Y19.5318
G01 X105.3930 Y19.2669
G01 X105.7500 Y18.9142
G01 X105.8364 Y18.8000
G01 X106.0509 Y18.4254
G01 X106.1899 Y18.0167
G01 X106.2464 Y17.6269
G01 X106.2341 Y17.2333
G01 X106.1481 Y16.8304
G01 X105.9900 Y16.4500
G01 X105.7500 Y16.0858
G01 X105.5415 Y15.8610
G01 X105.3044 Y15.6667
G01 X104.9667 Y15.4682
G01 X104.5846 Y15.3273
G01 X104.1833 Y15.2575
G01 X103.7884 Y15.2600
G01 X103.4000 Y15.3315
M63 P0 (laser off)

G00 X13.3167 Y97.7575
M62 P0 (laser on)
G01 X12.9773 Y97.8116
G01 X12.6502 Y97.9167
G01 X12.5333 Y97.9682
G01 X12.1070 Y98.2331
G01 X11.7500 Y98.5858
G01 X11.6636 Y98.7000
G01 X11.4491 Y99.0746
G01 X11.3101 Y99.4833
G01 X11.2536 Y99.8731
G01 X11.2659 Y100.2667
G01 X11.3519 Y100.6696
G01 X11.5100 Y101.0500
G01 X11.7500 Y101.4142
G01 X11.9585 Y101.6390
G01 X12.1956 Y101.8333
G01 X12.5333 Y102.0318
G01 X12.9154 Y102.1727
G01 X13.3167 Y102.2425
G01 X13.7116 Y102.2400
G01 X14.1000 Y102.1685
G01 X14.4668 Y102.0317
G01 X14.8044 Y101.8333
G01 X14.8833 Y101.7745
G01 X15.2251 Y101.4445
G01 X15.4900 Y101.0500
G01 X15.6667 Y100.6033
G01 X15.7341 Y100.2667
G01 X15.7464 Y99.8731
G01 X15.6899 Y99.4833
G01 X15.6667 Y99.3790
G01 X15.5285 Y99.0264
G01 X15.3364 Y98.7000
G01 X15.1273 Y98.4461
G01 X14.8833 Y98.2255
G01 X14.6272 Y98.0527
G01 X14.3498 Y97.9167
G01 X14.1000 Y97.8315
G01 X13.7116 Y97.7600
G01 X13.3167 Y97.7575
M63 P0 (laser off)

G00 X12.5333 Y15.4682
M62 P0 (laser on)
G01 X12.1956 Y15.6667
G01 X11.9585 Y15.8610
G01 X11.7500 Y16.0858
G01 X11.5100 Y16.4500
G01 X11.3519 Y16.8304
G01 X11.2659 Y17.2333
G01 X11.2536 Y17.6269
G01 X11.3101 Y18.0167
G01 X11.4491 Y18.4254
G01 X11.6636 Y18.8000
G01 X11.7500 Y18.9142
G01 X12.1070 Y19.2669
G01 X12.5333 Y19.5318
G01 X12.6502 Y19.5833
G01 X12.9773 Y19.6884
G01 X13.3167 Y19.7425
G01 X13.7116 Y19.7400
G01 X14.1000 Y19.6685
G01 X14.3497 Y19.5833
G01 X14.6272 Y19.4473
G01 X14.8833 Y19.2745
G01 X15.1273 Y19.0539
G01 X15.3364 Y18.8000
G01 X15.5285 Y18.4736
G01 X15.6667 Y18.1210
G01 X15.6899 Y18.0167
G01 X15.7464 Y17.6269
G01 X15.7341 Y17.2333
G01 X15.6667 Y16.8967
G01 X15.4900 Y16.4500
G01 X15.2251 Y16.0555
G01 X14.8833 Y15.7255
G01 X14.8044 Y15.6667
G01 X14.4668 Y15.4683
G01 X14.1000 Y15.3315
G01 X13.7116 Y15.2600
G01 X13.3167 Y15.2575
G01 X12.9154 Y15.3273
G01 X12.5333 Y15.4682
M63 P0 (laser off)

G00 X103.4000 Y97.8315
M62 P0 (laser on)
G01 X103.1502 Y97.9167
G01 X102.8728 Y98.0527
G01 X102.6167 Y98.2255
G01 X102.3727 Y98.4461
G01 X102.1636 Y98.7000
G01 X101.9716 Y99.0264
G01 X101.8333 Y99.3790
G01 X101.8101 Y99.4833
G01 X101.7536 Y99.8731
G01 X101.7659 Y100.2667
G01 X101.8333 Y100.6033
G01 X102.0100 Y101.0500
G01 X102.2749 Y101.4445
G01 X102.6167 Y101.7745
G01 X102.6956 Y101.8333
G01 X103.0332 Y102.0317
G01 X103.4000 Y102.1685
G01 X103.7884 Y102.2400
G01 X104.1833 Y102.2425
G01 X104.5846 Y102.1727
G01 X104.9667 Y102.0318
G01 X105.3044 Y101.8333
G01 X105.5415 Y101.6390
G01 X105.7500 Y101.4142
G01 X105.9900 Y101.0500
G01 X106.1481 Y100.6696
G01 X106.2341 Y100.2667
G01 X106.2464 Y99.8731
G01 X106.1899 Y99.4833
G01 X106.0509 Y99.0746
G01 X105.8364 Y98.7000
G01 X105.7500 Y98.5858
G01 X105.3930 Y98.2331
G01 X104.9667 Y97.9682
G01 X104.8498 Y97.9167
G01 X104.5227 Y97.8116
G01 X104.1833 Y97.7575
G01 X103.7884 Y97.7600
G01 X103.4000 Y97.8315
M63 P0 (laser off)

G00 X30.5500 Y46.5000
M62 P0 (laser on)
G01 X30.0477 Y46.5000
G01 X30.0000 Y46.7477
G01 X30.0000 Y69.7167
G01 X30.0000 Y70.3014
G01 X30.2392 Y70.5000
G01 X40.7333 Y70.5000
G01 X41.0000 Y70.4295
G01 X41.0000 Y69.7167
G01 X41.0000 Y46.6768
G01 X40.9252 Y46.5000
G01 X40.7333 Y46.4941
G01 X39.9500 Y46.5000
G01 X30.5500 Y46.5000
M63 P0 (laser off)

G00 X65.0167 Y69.9941
M62 P0 (laser on)
G01 X65.0000 Y70.5000
G01 X65.0000 Y80.6833
G01 X65.0167 Y80.9940
G01 X65.8000 Y81.0000
G01 X92.8044 Y81.0000
G01 X93.0000 Y80.9021
G01 X92.9979 Y80.6833
G01 X93.0000 Y79.9000
G01 X93.0000 Y70.2461
G01 X92.9373 Y70.0000
G01 X65.8000 Y70.0000
G01 X65.0167 Y69.9941
M63 P0 (laser off)

G00 X57.1833 Y41.4230
M62 P0 (laser on)
G01 X57.1246 Y41.5167
G01 X57.0046 Y41.8992
G01 X57.0000 Y42.3000
G01 X57.0000 Y59.5333
G01 X57.0000 Y59.9267
G01 X57.0515 Y60.3167
G01 X57.1833 Y60.5770
G01 X57.5253 Y60.8805
G01 X57.7391 Y60.9654
G01 X57.9667 Y60.9994
G01 X58.7500 Y61.0000
G01 X95.9609 Y61.0000
G01 X96.3500 Y60.9368
G01 X96.7195 Y60.6945
G01 X96.9485 Y60.3167
G01 X97.0000 Y59.9267
G01 X97.0000 Y42.3000
G01 X96.9954 Y41.8992
G01 X96.8754 Y41.5167
G01 X96.6533 Y41.2429
G01 X96.3500 Y41.0633
G01 X95.9609 Y41.0000
G01 X57.9667 Y41.0006
G01 X57.7391 Y41.0346
G01 X57.5253 Y41.1195
G01 X57.1833 Y41.4230
M63 P0 (laser off)

G00 X4.7000 Y0.0000
M62 P0 (laser on)
G01 X113.5833 Y0.0009
G01 X114.3667 Y0.0950
G01 X115.1500 Y0.3562
G01 X115.8776 Y0.7833
G01 X115.9333 Y0.8253
G01 X116.3284 Y1.1716
G01 X116.6747 Y1.5667
G01 X116.7167 Y1.6224
G01 X117.1438 Y2.3500
G01 X117.4050 Y3.1333
G01 X117.4991 Y3.9167
G01 X117.5000 Y4.7000
G01 X117.5000 Y112.8000
G01 X117.4991 Y113.5833
G01 X117.4050 Y114.3667
G01 X117.1438 Y115.1500
G01 X116.7167 Y115.8776
G01 X116.6747 Y115.9333
G01 X116.3284 Y116.3284
G01 X115.9333 Y116.6747
G01 X115.8776 Y116.7167
G01 X115.1500 Y117.1438
G01 X114.3667 Y117.4050
G01 X113.5833 Y117.4991
G01 X112.8000 Y117.5000
G01 X3.9167 Y117.4991
G01 X3.1333 Y117.4050
G01 X2.3500 Y117.1438
G01 X1.6224 Y116.7167
G01 X1.5667 Y116.6747
G01 X1.1716 Y116.3284
G01 X0.8253 Y115.9333
G01 X0.7833 Y115.8776
G01 X0.3562 Y115.1500
G01 X0.0950 Y114.3667
G01 X0.0009 Y113.5833
G01 X0.0000 Y112.8000
G01 X0.0000 Y4.7000
G01 X0.0009 Y3.9167
G01 X0.0950 Y3.1333
G01 X0.3562 Y2.3500
G01 X0.7833 Y1.6224
G01 X0.8253 Y1.5667
G01 X1.1716 Y1.1716
G01 X1.5667 Y0.8253
G01 X1.6224 Y0.7833
G01 X2.3500 Y0.3562
G01 X3.1333 Y0.0950
G01 X3.9167 Y0.0009
G01 X4.7000 Y0.0000
M63 P0 (laser off)

M5 (disable laser)
G00 X0.0 Y0.0 (move to 0)
M2 (end)
