(generated by ImplicitCAD, based of hacklab wiki example)
M63 P0 (laser off)
G0 Z0.002 (laser off)
G21 (units=mm)
F400 (set feedrate)
M3 S1 (enable laser)

G00 X0.0218 Y0.7923
M62 P0 (laser on)
G01 X0.1119 Y0.5402
G01 X0.2658 Y0.3211
G01 X0.4722 Y0.1506
G01 X0.7165 Y0.0410
G01 X1.6718 Y0.0000
G01 X38.9282 Y0.0000
G01 X39.8835 Y0.0410
G01 X40.1278 Y0.1506
G01 X40.3342 Y0.3211
G01 X40.4881 Y0.5402
G01 X40.5782 Y0.7923
G01 X40.6000 Y1.7431
G01 X40.6000 Y18.8569
G01 X40.5782 Y19.8077
G01 X40.4881 Y20.0598
G01 X40.3342 Y20.2789
G01 X40.1278 Y20.4494
G01 X39.8835 Y20.5590
G01 X38.9282 Y20.6000
G01 X1.6718 Y20.6000
G01 X0.7165 Y20.5590
G01 X0.4722 Y20.4494
G01 X0.2658 Y20.2789
G01 X0.1119 Y20.0598
G01 X0.0218 Y19.8077
G01 X-0.0000 Y18.8569
G01 X-0.0000 Y1.7431
G01 X0.0218 Y0.7923
M63 P0 (laser off)

M5 (disable laser)
G00 X0.0 Y0.0 (move to 0)
M2 (end)