(generated by ImplicitCAD, based of hacklab wiki example)
M63 P0 (laser off)
G0 Z0.002 (laser off)
G21 (units=mm)
F250 (set feedrate)
M3 S1 (enable laser)

G00 X52.6347 Y12.7758
M62 P0 (laser on)
G01 X52.4813 Y12.8154
G01 X52.2036 Y12.9394
G01 X52.0097 Y13.0771
G01 X51.8425 Y13.2462
G01 X51.7725 Y13.3381
G01 X51.6745 Y13.5015
G01 X51.6001 Y13.6769
G01 X51.5454 Y13.8893
G01 X51.5251 Y14.1077
G01 X51.5397 Y14.3256
G01 X51.5886 Y14.5385
G01 X51.6663 Y14.7322
G01 X51.7725 Y14.9119
G01 X51.8147 Y14.9692
G01 X51.9929 Y15.1584
G01 X52.2036 Y15.3106
G01 X52.3852 Y15.4000
G01 X52.6347 Y15.4742
G01 X52.8497 Y15.4991
G01 X53.0659 Y15.4900
G01 X53.2433 Y15.4565
G01 X53.4148 Y15.4000
G01 X53.4970 Y15.3636
G01 X53.7287 Y15.2222
G01 X53.9281 Y15.0380
G01 X53.9853 Y14.9692
G01 X54.1175 Y14.7639
G01 X54.2114 Y14.5385
G01 X54.2603 Y14.3256
G01 X54.2749 Y14.1077
G01 X54.2546 Y13.8893
G01 X54.1999 Y13.6769
G01 X54.0982 Y13.4506
G01 X53.9575 Y13.2462
G01 X53.9281 Y13.2120
G01 X53.7287 Y13.0278
G01 X53.4970 Y12.8864
G01 X53.3189 Y12.8154
G01 X53.0659 Y12.7600
G01 X52.8497 Y12.7509
G01 X52.6347 Y12.7758
M63 P0 (laser off)

G00 X52.6347 Y54.5258
M62 P0 (laser on)
G01 X52.3852 Y54.6000
G01 X52.2036 Y54.6894
G01 X51.9929 Y54.8416
G01 X51.8147 Y55.0308
G01 X51.7725 Y55.0881
G01 X51.6663 Y55.2678
G01 X51.5886 Y55.4615
G01 X51.5397 Y55.6744
G01 X51.5251 Y55.8923
G01 X51.5454 Y56.1107
G01 X51.6001 Y56.3231
G01 X51.6745 Y56.4985
G01 X51.7725 Y56.6619
G01 X51.8425 Y56.7538
G01 X52.0097 Y56.9229
G01 X52.2036 Y57.0606
G01 X52.4813 Y57.1846
G01 X52.6347 Y57.2242
G01 X52.8497 Y57.2491
G01 X53.0659 Y57.2400
G01 X53.3189 Y57.1846
G01 X53.4970 Y57.1136
G01 X53.7287 Y56.9722
G01 X53.9281 Y56.7880
G01 X53.9575 Y56.7538
G01 X54.0982 Y56.5494
G01 X54.1999 Y56.3231
G01 X54.2546 Y56.1107
G01 X54.2749 Y55.8923
G01 X54.2603 Y55.6744
G01 X54.2114 Y55.4615
G01 X54.1175 Y55.2361
G01 X53.9853 Y55.0308
G01 X53.9281 Y54.9620
G01 X53.7287 Y54.7778
G01 X53.4970 Y54.6364
G01 X53.4148 Y54.6000
G01 X53.2433 Y54.5435
G01 X53.0659 Y54.5100
G01 X52.8497 Y54.5009
G01 X52.6347 Y54.5258
M63 P0 (laser off)

G00 X6.9341 Y12.7600
M62 P0 (laser on)
G01 X6.6811 Y12.8154
G01 X6.5030 Y12.8864
G01 X6.2713 Y13.0278
G01 X6.0719 Y13.2120
G01 X6.0425 Y13.2462
G01 X5.9018 Y13.4506
G01 X5.8001 Y13.6769
G01 X5.7454 Y13.8893
G01 X5.7251 Y14.1077
G01 X5.7397 Y14.3256
G01 X5.7886 Y14.5385
G01 X5.8825 Y14.7639
G01 X6.0147 Y14.9692
G01 X6.0719 Y15.0380
G01 X6.2713 Y15.2222
G01 X6.5030 Y15.3636
G01 X6.5852 Y15.4000
G01 X6.7567 Y15.4565
G01 X6.9341 Y15.4900
G01 X7.1503 Y15.4991
G01 X7.3653 Y15.4742
G01 X7.6148 Y15.4000
G01 X7.7964 Y15.3106
G01 X8.0071 Y15.1584
G01 X8.1853 Y14.9692
G01 X8.2275 Y14.9119
G01 X8.3337 Y14.7322
G01 X8.4114 Y14.5385
G01 X8.4603 Y14.3256
G01 X8.4749 Y14.1077
G01 X8.4547 Y13.8893
G01 X8.3999 Y13.6769
G01 X8.3255 Y13.5015
G01 X8.2275 Y13.3381
G01 X8.1575 Y13.2462
G01 X7.9903 Y13.0771
G01 X7.7964 Y12.9394
G01 X7.5187 Y12.8154
G01 X7.3653 Y12.7758
G01 X7.1503 Y12.7509
G01 X6.9341 Y12.7600
M63 P0 (laser off)

G00 X6.9341 Y54.5100
M62 P0 (laser on)
G01 X6.7567 Y54.5435
G01 X6.5852 Y54.6000
G01 X6.5030 Y54.6364
G01 X6.2713 Y54.7778
G01 X6.0719 Y54.9620
G01 X6.0147 Y55.0308
G01 X5.8825 Y55.2361
G01 X5.7886 Y55.4615
G01 X5.7397 Y55.6744
G01 X5.7251 Y55.8923
G01 X5.7454 Y56.1107
G01 X5.8001 Y56.3231
G01 X5.9018 Y56.5494
G01 X6.0425 Y56.7538
G01 X6.0719 Y56.7880
G01 X6.2713 Y56.9722
G01 X6.5030 Y57.1136
G01 X6.6811 Y57.1846
G01 X6.9341 Y57.2400
G01 X7.1503 Y57.2491
G01 X7.3653 Y57.2242
G01 X7.5187 Y57.1846
G01 X7.7964 Y57.0606
G01 X7.9903 Y56.9229
G01 X8.1575 Y56.7538
G01 X8.2275 Y56.6619
G01 X8.3255 Y56.4985
G01 X8.3999 Y56.3231
G01 X8.4547 Y56.1107
G01 X8.4749 Y55.8923
G01 X8.4603 Y55.6744
G01 X8.4114 Y55.4615
G01 X8.3337 Y55.2678
G01 X8.2275 Y55.0881
G01 X8.1853 Y55.0308
G01 X8.0071 Y54.8416
G01 X7.7964 Y54.6894
G01 X7.6148 Y54.6000
G01 X7.3653 Y54.5258
G01 X7.1503 Y54.5009
G01 X6.9341 Y54.5100
M63 P0 (laser off)

G00 X53.4970 Y4.4548
M62 P0 (laser on)
G01 X53.3053 Y4.5310
G01 X53.1249 Y4.6308
G01 X53.0659 Y4.6703
G01 X52.8528 Y4.8491
G01 X52.6734 Y5.0615
G01 X52.6347 Y5.1187
G01 X52.5336 Y5.2998
G01 X52.4563 Y5.4923
G01 X52.4020 Y5.7050
G01 X52.3768 Y5.9231
G01 X52.3810 Y6.1397
G01 X52.4140 Y6.3538
G01 X52.4801 Y6.5750
G01 X52.5770 Y6.7846
G01 X52.6347 Y6.8813
G01 X52.7667 Y7.0581
G01 X52.9214 Y7.2154
G01 X53.0659 Y7.3297
G01 X53.2734 Y7.4535
G01 X53.4970 Y7.5452
G01 X53.7099 Y7.5989
G01 X53.9281 Y7.6234
G01 X54.1450 Y7.6185
G01 X54.3593 Y7.5848
G01 X54.5807 Y7.5177
G01 X54.7904 Y7.4198
G01 X55.0786 Y7.2154
G01 X55.2216 Y7.0716
G01 X55.4230 Y6.7846
G01 X55.5199 Y6.5750
G01 X55.5860 Y6.3538
G01 X55.6190 Y6.1397
G01 X55.6232 Y5.9231
G01 X55.5980 Y5.7050
G01 X55.5437 Y5.4923
G01 X55.4512 Y5.2688
G01 X55.3266 Y5.0615
G01 X55.2216 Y4.9284
G01 X55.0588 Y4.7673
G01 X54.8751 Y4.6308
G01 X54.7904 Y4.5802
G01 X54.5807 Y4.4823
G01 X54.3593 Y4.4152
G01 X54.1450 Y4.3815
G01 X53.9281 Y4.3766
G01 X53.7099 Y4.4011
G01 X53.4970 Y4.4548
M63 P0 (laser off)

G00 X5.2096 Y4.5802
M62 P0 (laser on)
G01 X5.1249 Y4.6308
G01 X4.9412 Y4.7673
G01 X4.7784 Y4.9284
G01 X4.6734 Y5.0615
G01 X4.5488 Y5.2688
G01 X4.4563 Y5.4923
G01 X4.4020 Y5.7050
G01 X4.3768 Y5.9231
G01 X4.3810 Y6.1397
G01 X4.4140 Y6.3538
G01 X4.4801 Y6.5750
G01 X4.5770 Y6.7846
G01 X4.7784 Y7.0716
G01 X4.9214 Y7.2154
G01 X5.2096 Y7.4198
G01 X5.4193 Y7.5177
G01 X5.6407 Y7.5848
G01 X5.8550 Y7.6185
G01 X6.0719 Y7.6234
G01 X6.2901 Y7.5989
G01 X6.5030 Y7.5452
G01 X6.7266 Y7.4535
G01 X6.9341 Y7.3297
G01 X7.0786 Y7.2154
G01 X7.2333 Y7.0581
G01 X7.3653 Y6.8813
G01 X7.4230 Y6.7846
G01 X7.5199 Y6.5750
G01 X7.5860 Y6.3538
G01 X7.6190 Y6.1397
G01 X7.6232 Y5.9231
G01 X7.5980 Y5.7050
G01 X7.5437 Y5.4923
G01 X7.4664 Y5.2998
G01 X7.3653 Y5.1187
G01 X7.3266 Y5.0615
G01 X7.1472 Y4.8491
G01 X6.9341 Y4.6703
G01 X6.8751 Y4.6308
G01 X6.6947 Y4.5310
G01 X6.5030 Y4.4548
G01 X6.2901 Y4.4011
G01 X6.0719 Y4.3766
G01 X5.8550 Y4.3815
G01 X5.6407 Y4.4152
G01 X5.4193 Y4.4823
G01 X5.2096 Y4.5802
M63 P0 (laser off)

G00 X5.2096 Y62.5802
M62 P0 (laser on)
G01 X4.9214 Y62.7846
G01 X4.7784 Y62.9284
G01 X4.5770 Y63.2154
G01 X4.4801 Y63.4250
G01 X4.4140 Y63.6462
G01 X4.3810 Y63.8603
G01 X4.3768 Y64.0769
G01 X4.4020 Y64.2950
G01 X4.4563 Y64.5077
G01 X4.5488 Y64.7312
G01 X4.6734 Y64.9385
G01 X4.7784 Y65.0717
G01 X4.9412 Y65.2327
G01 X5.1249 Y65.3692
G01 X5.2096 Y65.4198
G01 X5.4193 Y65.5177
G01 X5.6407 Y65.5848
G01 X5.8550 Y65.6185
G01 X6.0719 Y65.6234
G01 X6.2901 Y65.5989
G01 X6.5030 Y65.5452
G01 X6.6946 Y65.4691
G01 X6.8751 Y65.3692
G01 X6.9341 Y65.3297
G01 X7.1472 Y65.1509
G01 X7.3266 Y64.9385
G01 X7.3653 Y64.8813
G01 X7.4664 Y64.7002
G01 X7.5437 Y64.5077
G01 X7.5980 Y64.2950
G01 X7.6232 Y64.0769
G01 X7.6190 Y63.8603
G01 X7.5860 Y63.6462
G01 X7.5199 Y63.4250
G01 X7.4230 Y63.2154
G01 X7.3653 Y63.1187
G01 X7.2333 Y62.9419
G01 X7.0786 Y62.7846
G01 X6.9341 Y62.6703
G01 X6.7266 Y62.5465
G01 X6.5030 Y62.4548
G01 X6.2901 Y62.4011
G01 X6.0719 Y62.3766
G01 X5.8550 Y62.3815
G01 X5.6407 Y62.4152
G01 X5.4193 Y62.4823
G01 X5.2096 Y62.5802
M63 P0 (laser off)

G00 X53.0659 Y62.6703
M62 P0 (laser on)
G01 X52.9214 Y62.7846
G01 X52.7667 Y62.9419
G01 X52.6347 Y63.1187
G01 X52.5770 Y63.2154
G01 X52.4802 Y63.4250
G01 X52.4140 Y63.6462
G01 X52.3810 Y63.8603
G01 X52.3768 Y64.0769
G01 X52.4020 Y64.2950
G01 X52.4563 Y64.5077
G01 X52.5336 Y64.7002
G01 X52.6347 Y64.8813
G01 X52.6734 Y64.9385
G01 X52.8528 Y65.1509
G01 X53.0659 Y65.3297
G01 X53.1249 Y65.3692
G01 X53.3053 Y65.4691
G01 X53.4970 Y65.5452
G01 X53.7099 Y65.5989
G01 X53.9281 Y65.6234
G01 X54.1450 Y65.6185
G01 X54.3593 Y65.5848
G01 X54.5807 Y65.5177
G01 X54.7904 Y65.4198
G01 X54.8751 Y65.3692
G01 X55.0588 Y65.2327
G01 X55.2216 Y65.0717
G01 X55.3266 Y64.9385
G01 X55.4512 Y64.7312
G01 X55.5437 Y64.5077
G01 X55.5980 Y64.2950
G01 X55.6232 Y64.0769
G01 X55.6190 Y63.8603
G01 X55.5860 Y63.6462
G01 X55.5199 Y63.4250
G01 X55.4230 Y63.2154
G01 X55.2216 Y62.9284
G01 X55.0786 Y62.7846
G01 X54.7904 Y62.5802
G01 X54.5807 Y62.4823
G01 X54.3593 Y62.4152
G01 X54.1450 Y62.3815
G01 X53.9281 Y62.3766
G01 X53.7099 Y62.4011
G01 X53.4970 Y62.4548
G01 X53.2734 Y62.5465
G01 X53.0659 Y62.6703
M63 P0 (laser off)

G00 X9.9521 Y10.1250
M62 P0 (laser on)
G01 X9.8500 Y10.1286
G01 X9.8500 Y10.2308
G01 X9.8500 Y13.6769
G01 X9.8538 Y14.1077
G01 X9.9521 Y14.1250
G01 X50.0479 Y14.1250
G01 X50.1462 Y14.1077
G01 X50.1500 Y13.6769
G01 X50.1500 Y10.2308
G01 X50.1500 Y10.1286
G01 X50.0479 Y10.1250
G01 X9.9521 Y10.1250
M63 P0 (laser off)

G00 X9.9521 Y55.8750
M62 P0 (laser on)
G01 X9.8538 Y55.8923
G01 X9.8500 Y56.3231
G01 X9.8500 Y59.7692
G01 X9.8500 Y59.8714
G01 X9.9521 Y59.8750
G01 X50.1500 Y59.8714
G01 X50.1500 Y59.7692
G01 X50.1500 Y56.3231
G01 X50.1462 Y55.8923
G01 X50.0479 Y55.8750
G01 X9.9521 Y55.8750
M63 P0 (laser off)

G00 X9.9521 Y30.9972
M62 P0 (laser on)
G01 X9.8500 Y31.0413
G01 X9.8500 Y31.3385
G01 X9.8500 Y38.6615
G01 X9.8500 Y38.9587
G01 X9.9521 Y39.0028
G01 X10.3832 Y39.0000
G01 X50.0479 Y39.0028
G01 X50.1500 Y38.9587
G01 X50.1500 Y38.6615
G01 X50.1500 Y31.3385
G01 X50.1500 Y31.0413
G01 X50.0479 Y30.9972
G01 X49.6168 Y31.0000
G01 X9.9521 Y30.9972
M63 P0 (laser off)

G00 X4.7784 Y16.2500
M62 P0 (laser on)
G01 X4.4976 Y16.2615
G01 X4.5000 Y16.6923
G01 X4.5000 Y28.3231
G01 X4.5000 Y28.6273
G01 X4.6122 Y28.7500
G01 X55.3878 Y28.7500
G01 X55.5000 Y28.6273
G01 X55.5000 Y28.3231
G01 X55.5000 Y16.6923
G01 X55.5024 Y16.2615
G01 X55.2216 Y16.2500
G01 X4.7784 Y16.2500
M63 P0 (laser off)

G00 X4.7784 Y41.2500
M62 P0 (laser on)
G01 X4.6122 Y41.2500
G01 X4.5000 Y41.3727
G01 X4.5000 Y41.6769
G01 X4.5000 Y53.3077
G01 X4.4976 Y53.7385
G01 X4.7784 Y53.7500
G01 X55.2216 Y53.7500
G01 X55.5024 Y53.7385
G01 X55.5000 Y53.3077
G01 X55.5000 Y41.6769
G01 X55.5000 Y41.3727
G01 X55.3878 Y41.2500
G01 X4.7784 Y41.2500
M63 P0 (laser off)

G00 X1.6457 Y0.3231
M62 P0 (laser on)
G01 X1.7605 Y0.2680
G01 X2.1916 Y0.1110
G01 X2.6228 Y0.0238
G01 X3.0539 Y0.0000
G01 X56.9461 Y0.0000
G01 X57.3772 Y0.0238
G01 X57.8084 Y0.1110
G01 X58.2395 Y0.2680
G01 X58.3543 Y0.3231
G01 X58.6707 Y0.5082
G01 X58.9887 Y0.7538
G01 X59.1018 Y0.8593
G01 X59.3884 Y1.1846
G01 X59.5329 Y1.3924
G01 X59.6614 Y1.6154
G01 X59.8443 Y2.0462
G01 X59.9541 Y2.4769
G01 X59.9641 Y2.5371
G01 X59.9986 Y2.9077
G01 X60.0000 Y3.3385
G01 X60.0000 Y66.6615
G01 X59.9986 Y67.0923
G01 X59.9641 Y67.4629
G01 X59.9540 Y67.5231
G01 X59.8443 Y67.9539
G01 X59.6614 Y68.3846
G01 X59.5329 Y68.6076
G01 X59.3884 Y68.8154
G01 X59.1018 Y69.1407
G01 X58.9887 Y69.2462
G01 X58.6707 Y69.4918
G01 X58.3543 Y69.6769
G01 X58.2395 Y69.7320
G01 X57.8084 Y69.8890
G01 X57.3772 Y69.9762
G01 X56.9461 Y70.0000
G01 X3.0539 Y70.0000
G01 X2.6228 Y69.9762
G01 X2.1916 Y69.8890
G01 X1.7605 Y69.7320
G01 X1.6457 Y69.6769
G01 X1.3293 Y69.4918
G01 X1.0113 Y69.2462
G01 X0.8982 Y69.1407
G01 X0.6116 Y68.8154
G01 X0.4671 Y68.6076
G01 X0.3386 Y68.3846
G01 X0.1557 Y67.9539
G01 X0.0460 Y67.5231
G01 X0.0359 Y67.4629
G01 X0.0014 Y67.0923
G01 X-0.0000 Y66.6615
G01 X-0.0000 Y3.3385
G01 X0.0014 Y2.9077
G01 X0.0359 Y2.5371
G01 X0.0460 Y2.4769
G01 X0.1557 Y2.0462
G01 X0.3386 Y1.6154
G01 X0.4671 Y1.3924
G01 X0.6116 Y1.1846
G01 X0.8982 Y0.8593
G01 X1.0113 Y0.7538
G01 X1.3293 Y0.5082
G01 X1.6457 Y0.3231
M63 P0 (laser off)

M5 (disable laser)
G00 X0.0 Y0.0 (move to 0)
M2 (end)
